icons/ArrowUpNarrow_filled.svg

<svg width="24" height="24" viewBox="0 0 24 24" fill="none" xmlns="http://www.w3.org/2000/svg">
<path fill-rule="evenodd" clip-rule="evenodd" d="M11.1161,4.11612c0.4882,-0.48816 1.2796,-0.48816 1.7678,0l4,4c0.4881,0.48815 0.4881,1.27961 0,1.76776c-0.4882,0.48812 -1.2796,0.48812 -1.7678,0l-1.8661,-1.86611v10.98223c0,0.6904 -0.5596,1.25 -1.25,1.25c-0.6904,0 -1.25,-0.5596 -1.25,-1.25v-10.98223l-1.86612,1.86611c-0.48815,0.48812 -1.27961,0.48812 -1.76776,0c-0.48816,-0.48815 -0.48816,-1.27961 0,-1.76776z" fill="#002B51"/>
</svg>

<svg width="24" height="24" viewBox="0 0 24 24" fill="none" xmlns="http://www.w3.org/2000/svg">
<path fill-rule="evenodd" clip-rule="evenodd" d="M11.1161 4.11612C11.6043 3.62796 12.3957 3.62796 12.8839 4.11612L16.8839 8.11612C17.372 8.60427 17.372 9.39573 16.8839 9.88388C16.3957 10.372 15.6043 10.372 15.1161 9.88388L13.25 8.01777V19C13.25 19.6904 12.6904 20.25 12 20.25C11.3096 20.25 10.75 19.6904 10.75 19V8.01777L8.88388 9.88388C8.39573 10.372 7.60427 10.372 7.11612 9.88388C6.62796 9.39573 6.62796 8.60427 7.11612 8.11612L11.1161 4.11612Z" fill="#002B51"/>
</svg>
